X:1
T:Take Time to Be Holy
T:Text: William D. Longstaff (1822-1894), alt. Tune: George C. Stebbins (1846-1945)
T:65 65D HOLINESS www.hymnary.org/text/take_time_to_be_holy
T:Take Time to Be Holy
T:This hymn is in the public domain.  You may freely use this score for personal and congregational worship.  If you reproduce the score, please credit Hymnary.org as the source. 
T:This hymn is in the public domain.  You may freely use this score for personal and congregational worship.  If you reproduce the score, please credit Hymnary.org as the source. 
Z:This hymn is in the public domain.  You may freely use this score for personal and congregational worship.  If you reproduce the score, please credit Hymnary.org as the source.
%%score ( 1 2 ) ( 3 4 )
L:1/8
M:6/8
K:F
V:1 treble nm="Piano" snm="Pno."
V:2 treble 
V:3 bass nm="Piano" snm="Pno."
V:4 bass 
V:1
 [FA]3 AGA | [FB]3 [FA]3 | F3 [CG][CF][CE] | [CF]6 | [FA]3 AGA | [FB]3 [FA]3 | [EG]3 GGG | [EG]6 | %8
w: 3~Take time to be|ho- ly,|let him be your|guide,|and run not be-|fore him,|what- e- ver be-|tide.|
w: 1~Take time to be|ho- ly,|speak oft with your|Lord;|a- bide in him|al- ways,|and feed on his|Word.|
w: 2~Take time to be|ho- ly,|the world rush- es|on;|spend much time in|se- cret|with Je- sus a-|lone.|
 [GB]3 [GB][FA][EG] | [FA]3 [Fc]3 | [EB]3 [EB][FA][EG] | [FA]6 | [Fc]3 [Fc][EB][FA] | [Fd]3 [FB]3 | %14
w: In joy or in|sor- row,|still fol- low your|Lord,|and look- ing to|Je- sus,|
w: Make friends of God's|chil- dren;|help those who are|weak;|for- get- ting in|noth- ing|
w: By look- ing to|Je- sus,|like him you shall|be;|your friends in your|con- duct|
 [FA]3 [CG][CF][CE] | [CF]6 |] %16
w: still trust in his|Word.|
w: his bles- sing to|seek.|
w: his like- ness will|see.|
V:2
 x3 FFF | x6 | F3 x3 | x6 | x3 FFF | x6 | x3 DEF | x6 | x6 | x6 | x6 | x6 | x6 | x6 | x6 | x6 |] %16
V:3
 [F,C]3 [F,C][F,B,][F,C] | [F,D]3 [F,C]3 | [C,A,]3 [C,B,][C,A,][C,G,] | [F,A,]6 | %4
 [F,C]3 [F,C][F,B,][F,C] | [F,D]3 [F,C]3 | [G,C]3 [G,=B,][G,C][G,D] | [C,C]6 | %8
 [C,C]3 [C,C][C,C][C,C] | [F,C]3 [F,A,]3 | [C,G,]3 [C,C][C,C][C,C] | [F,C]6 | %12
 [F,A,]3 [A,C][G,C][F,C] | B,3 [B,,D]3 | [C,C]3 [C,B,][C,A,][C,G,] | [F,A,]6 |] %16
V:4
 x6 | x6 | x6 | x6 | x6 | x6 | x6 | x6 | x6 | x6 | x6 | x6 | x6 | B,3 x3 | x6 | x6 |] %16

